svg/200/rounded/expand_content-fill.svg

<svg xmlns="http://www.w3.org/2000/svg" width="48" height="48" viewBox="0 -960 960 960"><path d="M270.769-270.769h153.846q6.539 0 10.962 4.485T440-255.169q0 6.631-4.423 10.9T424.615-240H267.692q-11.769 0-19.731-7.961Q240-255.923 240-267.692v-156.923q0-6.539 4.485-10.962T255.6-440q6.631 0 10.9 4.423t4.269 10.962v153.846Zm418.462-418.462H535.385q-6.539 0-10.962-4.485T520-704.831q0-6.631 4.423-10.9T535.385-720h156.923q11.769 0 19.731 7.961Q720-704.077 720-692.308v156.923q0 6.539-4.485 10.962T704.4-520q-6.631 0-10.9-4.423t-4.269-10.962v-153.846Z"/></svg>

<svg xmlns="http://www.w3.org/2000/svg" width="48" height="48" viewBox="0 -960 960 960"><path d="M270.77-270.77h153.85q6.53 0 10.96 4.49 4.42 4.48 4.42 11.11 0 6.63-4.42 10.9-4.43 4.27-10.96 4.27H267.69q-11.77 0-19.73-7.96-7.96-7.96-7.96-19.73v-156.93q0-6.53 4.48-10.96 4.49-4.42 11.12-4.42 6.63 0 10.9 4.42 4.27 4.43 4.27 10.96v153.85Zm418.46-418.46H535.38q-6.53 0-10.96-4.49-4.42-4.48-4.42-11.11 0-6.63 4.42-10.9 4.43-4.27 10.96-4.27h156.93q11.77 0 19.73 7.96 7.96 7.96 7.96 19.73v156.93q0 6.53-4.48 10.96-4.49 4.42-11.12 4.42-6.63 0-10.9-4.42-4.27-4.43-4.27-10.96v-153.85Z"/></svg>
